!!!COM: Palestrina, Giovanni Perluigi da
!!!OPR: Hodie Christus Natus Est
!!!OTL: Gloria
**kern	**kern	**kern	**kern	**kern	**kern	**kern	**kern
*Ibass	*Itenor	*Itenor	*Icalto	*Ibass	*Icalto	*Icant	*Icant
!Bassus	!Tenor 2	!Tenor 1	!Altus	!Bassus	!Altus	!Cantus 2	!Cantus 1
*clefF4	*clefGv2	*clefGv2	*clefG2	*clefF4	*clefG2	*clefG2	*clefG2
*k[]	*k[]	*k[]	*k[]	*k[]	*k[]	*k[]	*k[]
*G:mix	*G:mix	*G:mix	*G:mix	*G:mix	*G:mix	*G:mix	*G:mix
*M4/2	*M4/2	*M4/2	*M4/2	*M4/2	*M4/2	*M4/2	*M4/2
=1	=1	=1	=1	=1	=1	=1	=1
1.C	1.e	1.c	1.g	0r	0r	0r	0r
2C	2e	2c	2g	.	.	.	.
=2	=2	=2	=2	=2	=2	=2	=2
2C	2g	2e	2g	0r	0r	0r	0r
2C	2c	2e	2g	.	.	.	.
[1F	[1c	[1f	[1a	.	.	.	.
=3	=3	=3	=3	=3	=3	=3	=3
1F]	1c]	1f]	1a]	0r	0r	0r	0r
1C	1c	1e	1g	.	.	.	.
=4	=4	=4	=4	=4	=4	=4	=4
1D	1A	1d	1f	0r	0r	0r	0r
1A	2A	1c	1e	.	.	.	.
.	[2c	.	.	.	.	.	.
=5	=5	=5	=5	=5	=5	=5	=5
0G	2c]	0d	0g	2r	2r	2r	2r
.	4B	.	.	1G	1g	1b	1dd
.	4A	.	.	.	.	.	.
.	1B	.	.	.	.	.	.
.	.	.	.	2G	2g	2b	2dd
=6	=6	=6	=6	=6	=6	=6	=6
0r	0r	0r	0r	1c	1g	1cc	1ee
.	.	.	.	1G	1g	1b	1dd
=7	=7	=7	=7	=7	=7	=7	=7
0r	0r	0r	0r	1A	1e	0a	4cc
.	.	.	.	.	.	.	4dd
.	.	.	.	.	.	.	4ee
.	.	.	.	.	.	.	4cc
.	.	.	.	1d	1f	.	4dd
.	.	.	.	.	.	.	4ee
.	.	.	.	.	.	.	[2ff
=8	=8	=8	=8	=8	=8	=8	=8
1r	1r	1r	1r	0c	0g	0cc	2ff]
.	.	.	.	.	.	.	2ee
1C	1c	2r	1e	.	.	.	1ee
.	.	[2g	.	.	.	.	.
=9	=9	=9	=9	=9	=9	=9	=9
1D	1A	2g]	1d	0r	0r	0r	0r
.	.	1f	.	.	.	.	.
1C	1c	.	1g	.	.	.	.
.	.	2e	.	.	.	.	.
=10	=10	=10	=10	=10	=10	=10	=10
1G	1B	1d	1g	2r	2r	0r	2r
.	.	.	.	2G	2g	.	1dd
1r	1r	1r	1r	1A	2f	.	.
.	.	.	.	.	2e	.	2cc
=11	=11	=11	=11	=11	=11	=11	=11
0r	0r	0r	0r	1G	2g	2r	1b
.	.	.	.	.	4d	1dd	.
.	.	.	.	.	4e	.	.
.	.	.	.	1F	4f	.	1a
.	.	.	.	.	4g	.	.
.	.	.	.	.	[2a	2cc	.
=12	=12	=12	=12	=12	=12	=12	=12
0r	0r	0r	0r	1G	4a]	2b	0dd
.	.	.	.	.	4g	.	.
.	.	.	.	.	1g	2b	.
.	.	.	.	1D	.	1a	.
.	.	.	.	.	2f#	.	.
=13	=13	=13	=13	=13	=13	=13	=13
2r	2r	2r	2r	1G	1g	1b	1dd
1G	1B	1d	1g	.	.	.	.
.	.	.	.	1r	1r	1r	1r
2G	2B	2d	2g	.	.	.	.
=14	=14	=14	=14	=14	=14	=14	=14
1C	1c	1e	1g	2r	2r	2r	2r
.	.	.	.	1c	2.g	1cc	1ee
1C	1c	1g	1e	.	.	.	.
.	.	.	.	.	4f	.	.
.	.	.	.	2c	4e	2cc	2ee
.	.	.	.	.	4d	.	.
=15	=15	=15	=15	=15	=15	=15	=15
0F	2.c	2.f	1a	2A	2c	1cc	1ff
.	.	.	.	2F	2A	.	.
.	4B	8e	.	.	.	.	.
.	.	8d	.	.	.	.	.
.	1A	2.c	1r	4F	2a	1ff	1cc
.	.	.	.	4G	.	.	.
.	.	.	.	4A	2a	.	.
.	.	4d	.	4B	.	.	.
=16	=16	=16	=16	=16	=16	=16	=16
1C	2r	4e	2r	2c	2g	2ee	2cc
.	.	4f	.	.	.	.	.
.	2c	2g	2g	2c	2e	2ee	2cc
2F	2c	2r	2f	2A	2a	2ff	2cc
2C	2c	2G	[2g	2c	2g	2ee	2cc
=17	=17	=17	=17	=17	=17	=17	=17
1G	2B	2B	4g]	1G	1g	2dd	2dd
.	.	.	4f	.	.	.	.
.	2G	2c	2e	.	.	1cc	2.gg
1G	[1g	2d	2d	1G	1g	.	.
.	.	.	.	.	.	.	4ff
.	.	2d	2g	.	.	2b	2dd
=18	=18	=18	=18	=18	=18	=18	=18
1C	1g]	1c	1e	1c	1g	1cc	1ee
1r	1r	1r	1r	1r	1r	1r	1r
=19	=19	=19	=19	=19	=19	=19	=19
0r	0r	0r	0r	1.A	1.a	1.ee	1.cc#
.	.	.	.	2A	2a	2ee	2cc#
=20	=20	=20	=20	=20	=20	=20	=20
0r	0r	0r	0r	1A	1a	1cc#	1ee
.	.	.	.	1d	1a	2dd	2ff#
.	.	.	.	.	.	2dd	2ff#
=21	=21	=21	=21	=21	=21	=21	=21
0r	0r	0r	0r	2G	2b	2dd	2.gg
.	.	.	.	2G	2b	2.gg	.
.	.	.	.	.	.	.	4ff
.	.	.	.	[1c	2.cc	.	4ee
.	.	.	.	.	.	4ff	4dd
.	.	.	.	.	.	4ee	[2cc
.	.	.	.	.	4b	4dd	.
=22	=22	=22	=22	=22	=22	=22	=22
1r	1r	1r	1r	1c]	4a	1ee	2cc]
.	.	.	.	.	4g	.	.
.	.	.	.	.	1g	.	2b
2r	2r	2r	2r	1d	.	1dd	1a
[2D	2d	[2d	[2a	.	2f#	.	.
=23	=23	=23	=23	=23	=23	=23	=23
2D]	1f#	2d]	2a]	0r	0r	0r	0r
2D	.	2d	2a	.	.	.	.
1D	1f#	1d	1a	.	.	.	.
=24	=24	=24	=24	=24	=24	=24	=24
[0G	2.g	2.B	2.d	2r	2r	2r	2r
.	.	.	.	1G	1g	1dd	1b
.	8f	4A	8e	.	.	.	.
.	8e	.	8f	.	.	.	.
.	2.d	4B	[1g	.	.	.	.
.	.	4A	.	.	.	.	.
.	.	4B	.	2G	2g	2dd	2b
.	4c	4c	.	.	.	.	.
=25	=25	=25	=25	=25	=25	=25	=25
1G]	1B	1d	1g]	1G	1g	1dd	1b
2r	2r	2r	2r	[1c	[1g	[1ee	[1cc
[2C	[2e	[2c	[2g	.	.	.	.
=26	=26	=26	=26	=26	=26	=26	=26
4C]	4e]	4c]	4g]	1c]	1g]	1ee]	1cc]
4C	4e	4c	4g	.	.	.	.
2C	2e	2c	2g	.	.	.	.
4F	2f	2.c	2.a	1r	1r	1r	1r
4G	.	.	.	.	.	.	.
4A	4e	.	.	.	.	.	.
4B	4d	4B	4g	.	.	.	.
=27	=27	=27	=27	=27	=27	=27	=27
4c	4e	2A	2a	0r	0r	0r	0r
4A	4f	.	.	.	.	.	.
1d	2g	2G	2b-	.	.	.	.
.	1e	1A	[1a	.	.	.	.
2c#	.	.	.	.	.	.	.
=28	=28	=28	=28	=28	=28	=28	=28
1d	1f#	0r	1a]	2r	2r	2r	2r
.	.	.	.	1d	1f#	1a	1dd
1r	1r	.	1r	.	.	.	.
.	.	.	.	2G	2g	2b	2dd
=29	=29	=29	=29	=29	=29	=29	=29
0r	0r	0r	0r	1G	1g	1b	1dd
.	.	.	.	1c	1g	1ee	1cc
=30	=30	=30	=30	=30	=30	=30	=30
0r	0r	0r	0r	0G	0g	1dd	2b
.	.	.	.	.	.	.	4g
.	.	.	.	.	.	.	4a
.	.	.	.	.	.	4g	4b
.	.	.	.	.	.	4a	4cc
.	.	.	.	.	.	4b	2dd
.	.	.	.	.	.	4cc	.
=31	=31	=31	=31	=31	=31	=31	=31
0r	0r	0r	0r	0r	2r	4dd	2b
.	.	.	.	.	.	4b	.
.	.	.	.	.	4c	1cc	1ee
.	.	.	.	.	4d	.	.
.	.	.	.	.	4e	.	.
.	.	.	.	.	4f	.	.
.	.	.	.	.	2g	4b	2dd
.	.	.	.	.	.	4a	.
=32	=32	=32	=32	=32	=32	=32	=32
0r	0r	0r	0r	2r	2e	2g	1cc
.	.	.	.	4F	1a	4a	.
.	.	.	.	4G	.	4b	.
.	.	.	.	4A	.	4cc	[1cc
.	.	.	.	4B	.	4dd	.
.	.	.	.	2c	2g	[2ee	.
=33	=33	=33	=33	=33	=33	=33	=33
0r	0r	0r	0r	2A	2a	4ee]	2cc]
.	.	.	.	.	.	4cc	.
.	.	.	.	2d	4g	1ff	2b
.	.	.	.	.	4f	.	.
.	.	.	.	1c	1g	.	[1cc
.	.	.	.	.	.	2ee	.
=34	=34	=34	=34	=34	=34	=34	=34
2r	2r	2r	2r	1F	1a	1ff	1cc]
1F	1f	1c	1a	.	.	.	.
.	.	.	.	1r	1r	1r	1r
2F	2f	2c	2a	.	.	.	.
=35	=35	=35	=35	=35	=35	=35	=35
4F	1a	1f	1cc	0r	0r	0r	0r
4G	.	.	.	.	.	.	.
4A	.	.	.	.	.	.	.
4B	.	.	.	.	.	.	.
[1c	2.g	4e	2cc	.	.	.	.
.	.	4d	.	.	.	.	.
.	.	4e	4c	.	.	.	.
.	4f	4f	4d	.	.	.	.
=36	=36	=36	=36	=36	=36	=36	=36
1c]	4e	2g	4e	0r	0r	0r	0r
.	4d	.	4f	.	.	.	.
.	2c	2e	4g	.	.	.	.
.	.	.	4e	.	.	.	.
[1F	2A	[1c	4f	.	.	.	.
.	.	.	4g	.	.	.	.
.	4F	.	2a	.	.	.	.
.	4G	.	.	.	.	.	.
=37	=37	=37	=37	=37	=37	=37	=37
2F]	4A	2c]	2a	0r	0r	0r	0r
.	4B	.	.	.	.	.	.
2E	1c	2c	2g	.	.	.	.
2D	.	4d	2.f	.	.	.	.
.	.	4e	.	.	.	.	.
2D	2B	[2f	.	.	.	.	.
.	.	.	4g	.	.	.	.
=38	=38	=38	=38	=38	=38	=38	=38
0C	0c	2f]	2a	1r	1r	1r	1r
.	.	4e	4g	.	.	.	.
.	.	4d	4f	.	.	.	.
.	.	1e	1g	2r	2r	2r	2r
.	.	.	.	2c	2g	2ee	2cc
=39	=39	=39	=39	=39	=39	=39	=39
1r	1r	1r	1r	2G	2g	2dd	2b
.	.	.	.	2G	2g	2b	2dd
2r	2r	2r	2r	1C	1g	1cc	1ee
2c	2c	2e	[2g	.	.	.	.
=40	=40	=40	=40	=40	=40	=40	=40
2G	2d	2g	4g]	1G	1g	1b	1dd
.	.	.	4g	.	.	.	.
2B	2G	2g	2d	.	.	.	.
1c	4c	1g	4e	1r	1r	1r	1r
.	4d	.	4f	.	.	.	.
.	4e	.	4g	.	.	.	.
.	4c	.	4a	.	.	.	.
=41	=41	=41	=41	=41	=41	=41	=41
1G	2d	1g	2b	2.G	2.d	2.g	2.b
.	2d	.	2b	.	.	.	.
.	.	.	.	4G	4d	4g	4b
1r	1r	1r	1r	2F	2f	2a	2cc
.	.	.	.	2D	2f	2b	2dd
=42	=42	=42	=42	=42	=42	=42	=42
2.c	2.e	2.g	2.cc	1C	1g	1cc	1ee
4c	4e	4g	4cc	.	.	.	.
2d	2.d	2f	2a	1r	1r	1r	1r
2B-	.	2d	2g	.	.	.	.
.	4d	.	.	.	.	.	.
=43	=43	=43	=43	=43	=43	=43	=43
1A	1c#	1e	1a	0A	0a	1r	0ee
1r	1r	1r	1r	.	.	1cc#	.
=44	=44	=44	=44	=44	=44	=44	=44
0D	2.d	0d	0a	0d	0f#	0dd	1.a
.	8c	.	.	.	.	.	.
.	8B	.	.	.	.	.	.
.	1A	.	.	.	.	.	.
.	.	.	.	.	.	.	[2dd
=45	=45	=45	=45	=45	=45	=45	=45
0G	0B	2.d	1.g	0G	2.g	2.b	4dd]
.	.	.	.	.	.	.	4cc
.	.	.	.	.	.	.	4b
.	.	4c	.	.	8f	4cc	4a
.	.	.	.	.	8e	.	.
.	.	4B	.	.	2d	[1dd	4g
.	.	4A	.	.	.	.	4a
.	.	4G	[2d	.	[2g	.	4b
.	.	4B	.	.	.	.	4g
=46	=46	=46	=46	=46	=46	=46	=46
0D	0d	0A	4d]	0d	2g]	1dd]	0a
.	.	.	4e	.	.	.	.
.	.	.	4f#	.	4f#	.	.
.	.	.	4g	.	4e	.	.
.	.	.	2a	.	1f#	1dd	.
.	.	.	[2d	.	.	.	.
=47	=47	=47	=47	=47	=47	=47	=47
0G	2.B	1G	4d]	2r	0g	2r	2b
.	.	.	4c	.	.	.	.
.	.	.	4B	2.G	.	2.dd	2.b
.	4c	.	4A	.	.	.	.
.	1d	1r	1B	.	.	.	.
.	.	.	.	4G	.	4dd	4b
.	.	.	.	2G	.	2b	2dd
=48	=48	=48	=48	=48	=48	=48	=48
0r	0r	0r	0r	2c	2r	2cc	2ee
.	.	.	.	2B	2.g	2dd	2dd
.	.	.	.	2.c	.	2.ee	1g
.	.	.	.	.	4g	.	.
.	.	.	.	.	2e	.	.
.	.	.	.	4B	.	4dd	.
=49	=49	=49	=49	=49	=49	=49	=49
0r	0r	0r	0r	2A	2f	2cc	2a
.	.	.	.	2G	2g	2b	4dd
.	.	.	.	.	.	.	4ee
.	.	.	.	[1F	2.a	2.cc	4ff
.	.	.	.	.	.	.	4gg
.	.	.	.	.	.	.	4ff
.	.	.	.	.	4g	4b	4ee
=50	=50	=50	=50	=50	=50	=50	=50
1r	1r	1r	1r	1F]	2f	1a	2dd
.	.	.	.	.	2e	.	2cc
2r	2r	2r	2r	1G	2d	1g	1b
[2G	[2d	[2B	[2g	.	2d	.	.
=51	=51	=51	=51	=51	=51	=51	=51
4G]	4d]	4B]	4g]	0r	0r	0r	0r
4G	4d	4B	4g	.	.	.	.
2E	2e	2c	2g	.	.	.	.
2F	1d	2A	2a	.	.	.	.
2G	.	2B	2g	.	.	.	.
=52	=52	=52	=52	=52	=52	=52	=52
2.A	2c	2.c	1e	0r	0r	0r	0r
.	2A	.	.	.	.	.	.
4G	.	4B	.	.	.	.	.
2F	1c	2A	2f	.	.	.	.
2E	.	2G	[2g	.	.	.	.
=53	=53	=53	=53	=53	=53	=53	=53
1D	1d	1A	2g]	1r	1r	1r	1r
.	.	.	2f#	.	.	.	.
1C	1e	1c	1g	2r	2r	2r	2r
.	.	.	.	[2c	[2g	[2cc	[2ee
=54	=54	=54	=54	=54	=54	=54	=54
0r	0r	0r	0r	2c]	2g]	2cc]	2ee]
.	.	.	.	2c	2g	2cc	2ee
.	.	.	.	[1c	1g	4cc	4ee
.	.	.	.	.	.	4dd	4dd
.	.	.	.	.	.	4ee	4cc
.	.	.	.	.	.	4ff	4dd
=55	=55	=55	=55	=55	=55	=55	=55
0r	0r	0r	0r	0c]	4c	2.gg	4ee
.	.	.	.	.	4d	.	4ff
.	.	.	.	.	4e	.	2.gg
.	.	.	.	.	4f	4ff	.
.	.	.	.	.	[1g	4ee	.
.	.	.	.	.	.	4dd	4ff
.	.	.	.	.	.	2cc	2ee
=56	=56	=56	=56	=56	=56	=56	=56
0r	0r	0r	0r	0G	0g]	2b	2dd
.	.	.	.	.	.	2ee	1cc
.	.	.	.	.	.	1dd	.
.	.	.	.	.	.	.	2b
=57	=57	=57	=57	=57	=57	=57	=57
2r	2r	2r	2r	1C	1g	1ee	1cc
1C	1c	1e	1g	.	.	.	.
.	.	.	.	1r	1r	1r	1r
2C	2c	2e	2g	.	.	.	.
=58	=58	=58	=58	=58	=58	=58	=58
0C	4c	4e	4g	2r	2r	2r	2r
.	4d	4d	4f	.	.	.	.
.	4e	4c	4e	1c	1g	1ee	1cc
.	4f	4d	4d	.	.	.	.
.	2.g	4e	4c	.	.	.	.
.	.	4f	4d	.	.	.	.
.	.	[2g	4e	2c	2g	2ee	2cc
.	4f	.	4f	.	.	.	.
=59	=59	=59	=59	=59	=59	=59	=59
[0C	0e	4g]	0g	0c	0g	4ee	4cc
.	.	4f	.	.	.	4dd	4dd
.	.	4e	.	.	.	4cc	4ee
.	.	4d	.	.	.	4dd	4ff
.	.	1c	.	.	.	4ee	2gg
.	.	.	.	.	.	4ff	.
.	.	.	.	.	.	2gg	[2ee
=60	=60	=60	=60	=60	=60	=60	=60
0C]	0c	1.G	0e	0c	0g	4gg	4ee]
.	.	.	.	.	.	4ff	4dd
.	.	.	.	.	.	4ee	4cc
.	.	.	.	.	.	4dd	4b
.	.	.	.	.	.	1ee	1cc
.	.	2A	.	.	.	.	.
=61	=61	=61	=61	=61	=61	=61	=61
0G	0d	0B	0g	0G	0g	0dd	0b
!! Qui tollis
*Ibass	*Itenor	*Itenor	*Icalto	*Ibass	*Icalto	*Icant	*Icant
!Bassus	!Tenor 2	!Tenor 1	!Altus	!Bassus	!Altus	!Cantus 2	!Cantus 1
*clefF4	*clefGv2	*clefGv2	*clefG2	*clefF4	*clefG2	*clefG2	*clefG2
*k[]	*k[]	*k[]	*k[]	*k[]	*k[]	*k[]	*k[]
*G:mix	*G:mix	*G:mix	*G:mix	*G:mix	*G:mix	*G:mix	*G:mix
*M4/2	*M4/2	*M4/2	*M4/2	*M4/2	*M4/2	*M4/2	*M4/2
=62	=62	=62	=62	=62	=62	=62	=62
0G	1d	0B	0g	0r	0r	0r	0r
.	1d	.	.	.	.	.	.
=63	=63	=63	=63	=63	=63	=63	=63
1G	2G	1B	2.g	0r	0r	0r	0r
.	2g	.	.	.	.	.	.
.	.	.	4f	.	.	.	.
1C	4g	2c	1e	.	.	.	.
.	4f	.	.	.	.	.	.
.	4e	2g	.	.	.	.	.
.	4d	.	.	.	.	.	.
=64	=64	=64	=64	=64	=64	=64	=64
2r	1e	4g	1c	0r	0r	0r	0r
.	.	4f	.	.	.	.	.
2c	.	4e	.	.	.	.	.
.	.	4d	.	.	.	.	.
4c	2c	1e	2r	.	.	.	.
4B	.	.	.	.	.	.	.
4A	[2e	.	2cc	.	.	.	.
4G	.	.	.	.	.	.	.
=65	=65	=65	=65	=65	=65	=65	=65
1A	4e]	4c	4cc	0r	0r	0r	0r
.	4d	4d	4b	.	.	.	.
.	4c	4e	4a	.	.	.	.
.	4B	8d	4g	.	.	.	.
.	.	8e	.	.	.	.	.
2F	4c	2.f	2.a	.	.	.	.
.	8d	.	.	.	.	.	.
.	8e	.	.	.	.	.	.
[2D	[2f	.	.	.	.	.	.
.	.	4g	4g	.	.	.	.
=66	=66	=66	=66	=66	=66	=66	=66
4D]	4f]	2a	1f	0r	0r	0r	0r
4E	4e	.	.	.	.	.	.
4F	2d	4A	.	.	.	.	.
4G	.	4B	.	.	.	.	.
2.A	1c	4c	1e	.	.	.	.
.	.	4d	.	.	.	.	.
.	.	[2e	.	.	.	.	.
4G	.	.	.	.	.	.	.
=67	=67	=67	=67	=67	=67	=67	=67
1F	2.A	2e]	1a	0r	0r	0r	0r
.	.	2d	.	.	.	.	.
.	4B	.	.	.	.	.	.
1C	2c	1e	2g	.	.	.	.
.	[2e	.	[2cc	.	.	.	.
=68	=68	=68	=68	=68	=68	=68	=68
1G	2e]	1g	2cc]	0r	0r	0r	0r
.	2d	.	2b	.	.	.	.
1C	2.c	1e	2a	.	.	.	.
.	.	.	2g	.	.	.	.
.	4B	.	.	.	.	.	.
=69	=69	=69	=69	=69	=69	=69	=69
2D	2A	2d	2f#	0r	0r	0r	0r
2E	2G	2c	1g	.	.	.	.
1D	1A	1d	.	.	.	.	.
.	.	.	2f#	.	.	.	.
=70	=70	=70	=70	=70	=70	=70	=70
1G	1B	1d	1g	2r	2r	2r	2r
.	.	.	.	2G	2g	2b	2dd
1r	1r	1r	2r	1G	1g	1b	1dd
.	.	.	2g	.	.	.	.
=71	=71	=71	=71	=71	=71	=71	=71
2r	2r	2r	1g	0C	2.g	2cc	1.ee
2c	2e	2g	.	.	.	2gg	.
.	.	.	.	.	4f	.	.
1c	1e	1g	[1c	.	4e	4gg	.
.	.	.	.	.	4d	4ff	.
.	.	.	.	.	[2c	4ee	2gg
.	.	.	.	.	.	4dd	.
=72	=72	=72	=72	=72	=72	=72	=72
1C	1g	1e	1c]	2r	4c]	2ee	4gg
.	.	.	.	.	4d	.	4ff
.	.	.	.	2c	2e	1cc	4ee
.	.	.	.	.	.	.	4dd
1r	1r	1r	1r	4c	2r	.	1ee
.	.	.	.	4B	.	.	.
.	.	.	.	4A	2cc	2ee	.
.	.	.	.	4G	.	.	.
=73	=73	=73	=73	=73	=73	=73	=73
0r	0r	0r	0r	1A	4cc	2ee	1.cc
.	.	.	.	.	4b	.	.
.	.	.	.	.	4a	2ee	.
.	.	.	.	.	4g	.	.
.	.	.	.	2F	1a	2.ff	.
.	.	.	.	[2D	.	.	2dd
.	.	.	.	.	.	4ee	.
=74	=74	=74	=74	=74	=74	=74	=74
0r	0r	0r	0r	4D]	1f	2dd	1a
.	.	.	.	4E	.	.	.
.	.	.	.	4F	.	4cc	.
.	.	.	.	4G	.	4b	.
.	.	.	.	4A	2.e	4cc	2r
.	.	.	.	4B	.	4dd	.
.	.	.	.	[2c	.	[2ee	2g
.	.	.	.	.	4d	.	.
=75	=75	=75	=75	=75	=75	=75	=75
0r	0r	0r	0r	2c]	4e	2ee]	2g
.	.	.	.	.	4f	.	.
.	.	.	.	2B	1g	2dd	2g
.	.	.	.	1A	.	1cc	1a
.	.	.	.	.	2f#	.	.
=76	=76	=76	=76	=76	=76	=76	=76
1r	1r	1r	1r	1G	1g	1b	1dd
1G	1B	2r	1g	2r	2r	2r	2r
.	.	[2d	.	[2G	[2g	[2dd	[2b
=77	=77	=77	=77	=77	=77	=77	=77
1B	1G	2d]	1g	2G]	2g]	2dd]	2b]
.	.	2d	.	2G	2g	2dd	2b
1c	1g	2e	1e	1C	2g	1cc	1ee
.	.	[2c	.	.	[2e	.	.
=78	=78	=78	=78	=78	=78	=78	=78
2.C	2.e	2c]	2.g	2.c	2e]	2.ee	2.cc
.	.	2c	.	.	2c	.	.
4C	4e	.	4g	4c	.	4ee	4cc
2C	2e	2c	2g	2c	2e	2ee	2cc
2C	2c	2G	2g	2c	2e	2ee	2cc
=79	=79	=79	=79	=79	=79	=79	=79
1G	1d	4B	1g	1G	2g	1.dd	1b
.	.	4c	.	.	.	.	.
.	.	4d	.	.	1d	.	.
.	.	4e	.	.	.	.	.
1G	1B	2d	2G	1B	.	.	1dd
.	.	2d	[2d	.	[2g	2g	.
=80	=80	=80	=80	=80	=80	=80	=80
0D	0A	0d	4d]	0d	2g]	0a	1dd
.	.	.	4e	.	.	.	.
.	.	.	4f#	.	4f#	.	.
.	.	.	4g	.	4e	.	.
.	.	.	2a	.	1f#	.	1dd
.	.	.	2d	.	.	.	.
=81	=81	=81	=81	=81	=81	=81	=81
0G	0G	0B	0d	1G	0g	1b	2r
.	.	.	.	.	.	.	2dd
.	.	.	.	1r	.	2r	1dd
.	.	.	.	.	.	2dd	.
=82	=82	=82	=82	=82	=82	=82	=82
0r	0r	0r	0r	0r	1r	1dd	4b
.	.	.	.	.	.	.	4a
.	.	.	.	.	.	.	4b
.	.	.	.	.	.	.	4cc
.	.	.	.	.	2r	4b	2.dd
.	.	.	.	.	.	4a	.
.	.	.	.	.	2g	4b	.
.	.	.	.	.	.	4cc	4cc
=83	=83	=83	=83	=83	=83	=83	=83
0r	0r	0r	0r	1r	1g	2dd	2.b
.	.	.	.	.	.	2gg	.
.	.	.	.	.	.	.	4a
.	.	.	.	2r	4e	1gg	2.g
.	.	.	.	.	4d	.	.
.	.	.	.	2c	4e	.	.
.	.	.	.	.	4f	.	8a
.	.	.	.	.	.	.	8b
=84	=84	=84	=84	=84	=84	=84	=84
0r	0r	0r	0r	1c	2.g	0ee	0cc
.	.	.	.	.	8f	.	.
.	.	.	.	.	8g	.	.
.	.	.	.	4A	[1a	.	.
.	.	.	.	4G	.	.	.
.	.	.	.	4A	.	.	.
.	.	.	.	4B	.	.	.
=85	=85	=85	=85	=85	=85	=85	=85
0r	0r	0r	0r	2c	2a]	1ee	1cc
.	.	.	.	2c	2g	.	.
.	.	.	.	2.d	2.f	2.dd	2.a
.	.	.	.	4B	4d	4dd	4b
=86	=86	=86	=86	=86	=86	=86	=86
1r	1r	1r	1r	2c	2e	2cc	2g
.	.	.	.	2A	2f#	2cc	2a
2r	1d	2r	2r	1G	1g	1b	1dd
[2G	.	[2B	[2g	.	.	.	.
=87	=87	=87	=87	=87	=87	=87	=87
2G]	2e	2B]	2g]	0r	0r	0r	0r
2A	1c	2c	2e	.	.	.	.
1F	.	1A	1a	.	.	.	.
.	[2d	.	.	.	.	.	.
=88	=88	=88	=88	=88	=88	=88	=88
1G	4d]	2B	1g	0r	0r	0r	0r
.	4c	.	.	.	.	.	.
.	4B	2.d	.	.	.	.	.
.	4A	.	.	.	.	.	.
1E	2G	.	1g	.	.	.	.
.	.	8c#	.	.	.	.	.
.	.	8B	.	.	.	.	.
.	2G	2c#	.	.	.	.	.
=89	=89	=89	=89	=89	=89	=89	=89
1D	1A	1d	1f#	1d	2r	1a	2r
.	.	.	.	.	2f#	.	1dd
1r	1r	1r	1r	2G	1g	2b	.
.	.	.	.	4c	.	2g	2ee
.	.	.	.	4B	.	.	.
=90	=90	=90	=90	=90	=90	=90	=90
0r	0r	0r	0r	4A	1e	1a	1cc
.	.	.	.	4G	.	.	.
.	.	.	.	4F	.	.	.
.	.	.	.	4E	.	.	.
.	.	.	.	2D	4.f	1ff	1dd
.	.	.	.	.	8g	.	.
.	.	.	.	2D	[2a	.	.
=91	=91	=91	=91	=91	=91	=91	=91
1r	1r	1r	1r	1E	2a]	0ee	1b
.	.	.	.	.	2g#	.	.
2r	2r	2r	2r	1A	1a	.	1a
[2A	[2c#	[2e	[2a	.	.	.	.
=92	=92	=92	=92	=92	=92	=92	=92
2A]	2c#]	2e]	2a]	0r	0r	0r	0r
2A	2c#	2e	2a	.	.	.	.
1D	1d	2.f	2a	.	.	.	.
.	.	.	2a	.	.	.	.
.	.	8e	.	.	.	.	.
.	.	8d	.	.	.	.	.
=93	=93	=93	=93	=93	=93	=93	=93
2r	0r	2e	2g	0r	0r	0r	0r
2d	.	1a	2f	.	.	.	.
2c	.	.	2e	.	.	.	.
2B	.	2g	2d	.	.	.	.
=94	=94	=94	=94	=94	=94	=94	=94
2.A	2r	2f	2a	0r	0r	0r	0r
.	2a	1e	1cc	.	.	.	.
4B	.	.	.	.	.	.	.
2c	2g	.	.	.	.	.	.
2d	2f	[2d	2a	.	.	.	.
=95	=95	=95	=95	=95	=95	=95	=95
1A	1e	2d]	1a	0r	0r	0r	0r
.	.	2c#	.	.	.	.	.
1D	1f#	1d	1a	.	.	.	.
=96	=96	=96	=96	=96	=96	=96	=96
0r	0r	0r	0r	1D	1f#	2r	1a
.	.	.	.	.	.	2dd	.
.	.	.	.	2.G	2.g	2.dd	2.b
.	.	.	.	4E	4g	4ee	4cc
=97	=97	=97	=97	=97	=97	=97	=97
1r	1r	1r	1r	2F	2a	2cc	2a
.	.	.	.	2D	2f	2dd	2b
2r	2r	2r	2r	1C	1g	1ee	1cc
2c	2g	2e	2cc	.	.	.	.
=98	=98	=98	=98	=98	=98	=98	=98
2.d	2f	2.f	2.a	0r	0r	0r	0r
.	2d	.	.	.	.	.	.
4B	.	4g	4b	.	.	.	.
2c	2e	2e	2g	.	.	.	.
2A	2f#	2c	2cc	.	.	.	.
=99	=99	=99	=99	=99	=99	=99	=99
1G	1g	1d	1b	2r	2r	2r	2r
.	.	.	.	2G	2g	2b	2dd
1r	1r	1r	1r	1c	1g	1cc	1ee
=100	=100	=100	=100	=100	=100	=100	=100
0r	0r	0r	0r	2F	2a	2cc	1.ff
.	.	.	.	2F	2a	2cc	.
.	.	.	.	4F	[1cc	4a	.
.	.	.	.	4G	.	4b	.
.	.	.	.	4A	.	4cc	2ee
.	.	.	.	4B	.	4dd	.
=101	=101	=101	=101	=101	=101	=101	=101
0r	0r	0r	0r	2c	2cc]	4ee	2ee
.	.	.	.	.	.	4ff	.
.	.	.	.	2c	2cc	1gg	2ee
.	.	.	.	[1d	[1a	.	[1dd
.	.	.	.	.	.	2ff#	.
=102	=102	=102	=102	=102	=102	=102	=102
1D	2r	1d	1a	1d]	1a]	1ff#	1dd]
.	2a	.	.	.	.	.	.
1G	1g	1B	1d	1r	1r	1r	1r
=103	=103	=103	=103	=103	=103	=103	=103
2C	2.e	4c	2.g	0r	0r	0r	0r
.	.	4d	.	.	.	.	.
2C	.	4e	.	.	.	.	.
.	4d	4f	4f	.	.	.	.
4C	2c	[1g	1e	.	.	.	.
4D	.	.	.	.	.	.	.
4E	4G	.	.	.	.	.	.
4F	4A	.	.	.	.	.	.
=104	=104	=104	=104	=104	=104	=104	=104
4G	4B	1g]	1d	0r	0r	0r	0r
4A	4c	.	.	.	.	.	.
4B	2.d	.	.	.	.	.	.
4c	.	.	.	.	.	.	.
2d	.	2r	4f	.	.	.	.
.	4e	.	4g	.	.	.	.
2d	4f	2f	4a	.	.	.	.
.	4d	.	4b	.	.	.	.
=105	=105	=105	=105	=105	=105	=105	=105
0c	2e	2g	2cc	0r	0r	1r	0r
.	1f	2a	2cc	.	.	.	.
.	.	1g	1cc	.	.	[1cc	.
.	2e	.	.	.	.	.	.
=106	=106	=106	=106	=106	=106	=106	=106
1r	1f	1a	2r	0F	2.a	1cc]	0cc
.	.	.	2.a	.	.	.	.
.	.	.	.	.	4g	.	.
[1F	[1c	2r	.	.	4f	[1a	.
.	.	.	4b	.	4g	.	.
.	.	[2f	2cc	.	4a	.	.
.	.	.	.	.	4b	.	.
=107	=107	=107	=107	=107	=107	=107	=107
1F]	2c]	4f]	1f	2.A	1cc	2a]	1.a
.	.	4g	.	.	.	.	.
.	2f	1a	.	.	.	2.cc	.
.	.	.	.	4B	.	.	.
2.A	2.e	.	1cc	1c	1c	.	.
.	.	.	.	.	.	4dd	.
.	.	2a	.	.	.	[2ee	[2cc
4B	4d	.	.	.	.	.	.
=108	=108	=108	=108	=108	=108	=108	=108
1c	4e	2.g	2cc	1C	[0g	4ee]	4cc]
.	4f	.	.	.	.	4dd	4dd
.	1g	.	4c	.	.	4cc	2.ee
.	.	4f	4d	.	.	4b	.
1C	.	1e	4e	[1c	.	1cc	.
.	.	.	4f	.	.	.	4dd
.	[2G	.	2g	.	.	.	4ee
.	.	.	.	.	.	.	4ff
=109	=109	=109	=109	=109	=109	=109	=109
0G	4G]	0d	2g	2c]	0g]	0dd	0gg
.	4A	.	.	.	.	.	.
.	4B	.	2.g	4B	.	.	.
.	4c	.	.	4A	.	.	.
.	2d	.	.	1B	.	.	.
.	.	.	4a	.	.	.	.
.	2G	.	2b	.	.	.	.
!! Cum Sancto Spiritu
*Ibass	*Itenor	*Itenor	*Icalto	*Ibass	*Icalto	*Icant	*Icant
!Bassus	!Tenor 2	!Tenor 1	!Altus	!Bassus	!Altus	!Cantus 2	!Cantus 1
*clefF4	*clefGv2	*clefGv2	*clefG2	*clefF4	*clefG2	*clefG2	*clefG2
*k[]	*k[]	*k[]	*k[]	*k[]	*k[]	*k[]	*k[]
*G:mix	*G:mix	*G:mix	*G:mix	*G:mix	*G:mix	*G:mix	*G:mix
*M3/2	*M3/2	*M3/2	*M3/2	*M3/2	*M3/2	*M3/2	*M3/2
=110	=110	=110	=110	=110	=110	=110	=110
2C	2G	2e	2g	1.c	1.g	1.cc	1.ee
2r	2r	2r	2r	.	.	.	.
2C	2c	2e	2g	.	.	.	.
=111	=111	=111	=111	=111	=111	=111	=111
1F	1c	1f	1a	1r	1r	1r	1r
2C	2c	2e	2g	2r	2r	2r	2r
=112	=112	=112	=112	=112	=112	=112	=112
1G	1B	1d	1g	1r	1r	1r	1r
2A	2c	2c	2f#	2r	2r	2r	2r
=113	=113	=113	=113	=113	=113	=113	=113
1.G	1.d	1.B	1.g	2r	2r	2r	2r
.	.	.	.	2r	2r	2r	2r
.	.	.	.	2G	2g	2b	2dd
=114	=114	=114	=114	=114	=114	=114	=114
1r	1r	1r	1r	1c	1g	1cc	1ee
2r	2r	2r	2r	2c	2g	2cc	2ee
=115	=115	=115	=115	=115	=115	=115	=115
1r	1r	1r	1r	1F	1a	1cc	1ff
2r	2r	2r	2r	2F	2a	2cc	2ff
=116	=116	=116	=116	=116	=116	=116	=116
1r	1r	1r	1r	1c	2g	2cc	2ee
.	.	.	.	.	2e	2g	1cc
2r	2r	2r	2r	2A	2f#	2a	.
=117	=117	=117	=117	=117	=117	=117	=117
2r	2r	2r	2r	2G	2.g	2dd	2b
2r	2r	2r	2r	1d	.	1dd	1a
.	.	.	.	.	8f#	.	.
.	.	.	.	.	8e	.	.
2D	2d	2d	2a	.	2f#	.	.
=118	=118	=118	=118	=118	=118	=118	=118
1G	1B	1d	1g	1.G	1.g	1.dd	1.b
2G	2B	2d	2g	.	.	.	.
=119	=119	=119	=119	=119	=119	=119	=119
1C	1c	1e	1g	1r	1r	1r	1r
2C	2e	2c	2g	2r	2r	2r	2r
=120	=120	=120	=120	=120	=120	=120	=120
1G	1d	2B	2g	1r	1r	1r	1r
.	.	2B	2d	.	.	.	.
2E	2g	2c	2e	2r	2r	2r	2r
=121	=121	=121	=121	=121	=121	=121	=121
2D	2f	2.d	2a	2r	2r	2r	1r
1A	1e	.	1a	2r	2r	2r	.
.	.	4c#	.	.	.	.	.
.	.	2c#	.	2A	2a	2a	2r
=122	=122	=122	=122	=122	=122	=122	=122
1D	1d	2d	2a	1d	1f#	1a	2dd
.	.	2r	2r	.	.	.	2.dd
2D	2d	2d	2a	2d	2f#	2a	.
.	.	.	.	.	.	.	4dd
=123	=123	=123	=123	=123	=123	=123	=123
1G	1B	1d	1g	1G	1g	1b	2dd
.	.	.	.	.	.	.	1gg
2G	2B	2d	2g	2G	2g	2dd	.
=124	=124	=124	=124	=124	=124	=124	=124
1C	2c	1e	2g	2c	1.g	1cc	2ee
.	2G	.	1g	1c	.	.	1ee
2C	[2G	2c	.	.	.	4g	.
.	.	.	.	.	.	4a	.
=125	=125	=125	=125	=125	=125	=125	=125
2G	4G]	2d	2g	1.B	1g	4b	1.dd
.	4A	.	.	.	.	4cc	.
1G	2B	1d	1g	.	.	2dd	.
.	2B	.	.	.	2g	2gg	.
=126	=126	=126	=126	=126	=126	=126	=126
2C	2G	2e	2g	1.c	1.g	1.ee	1.cc
1C	2.G	1c	1g	.	.	.	.
.	4A	.	.	.	.	.	.
=127	=127	=127	=127	=127	=127	=127	=127
1.G	1.B	1.d	1.g	1.G	1.g	1.dd	1.b
==	==	==	==	==	==	==	==
*-	*-	*-	*-	*-	*-	*-	*-
!!!CDT: 1525/^1526/-1594/2/2
!!!OCY: Italia
!!!AGN: Mass (Parody)
!!!AST: renaissance, vocal
!!!ASW: Motet 1575 (Palestrina)
!!!PWK: Masses, Book 8vce
!!!RNB: Cadence finals: C,D
!!!YOR: Le Opere Complete, v. 30, p. 59
!!!YOO: Rome, Italy: Fratelli Scalera
!!!END: 1992//
!!!EED: John Miller
!!!YEC: Copyright 2000, John Miller
!!!YEN: United States of America
!!!YEM: Rights to all derivative electronic formats reserved.
!!!YEM: Refer to licensing agreement for further details.
!!!YEM: This file must be accompanied by the licensing agreement.
!!!YEM: A copy of the licensing agreement may be found at http://www.music-cog.ohio-state.edu/HumdrumDatabases/Palestrina/license.txt
!!!EMD: converted to Humdrum by Bret Aarden
